src/svgs/baby-bottle.svg

<svg xmlns="http://www.w3.org/2000/svg" viewBox="0 0 24 24" width="512" height="512"><path d="M16 7.184V6a1 1 0 00-1-1h-1V4a2 2 0 00-4 0v1H9a1 1 0 00-1 1v1.184A2.99 2.99 0 006 10v9a3 3 0 003 3h6a3 3 0 003-3v-9a2.99 2.99 0 00-2-2.816zM12 19H8v-2h4zm0-4H8v-2h4zm0-4H8V9h4z"/></svg>

<svg xmlns="http://www.w3.org/2000/svg" viewBox="0 0 24 24"><path d="M16,7.184V6a1,1,0,0,0-1-1H14V4a2,2,0,0,0-4,0V5H9A1,1,0,0,0,8,6V7.184A2.99,2.99,0,0,0,6,10v9a3,3,0,0,0,3,3h6a3,3,0,0,0,3-3V10A2.99,2.99,0,0,0,16,7.184ZM12,19H8V17h4Zm0-4H8V13h4Zm0-4H8V9h4Z"/></svg>
